X: 21682
T: Kilnamona
R: barndance
M: 4/4
K: Gmajor
g4- g2- ge|dGBd GABc|d/e/d c2 A2- AB|c/d/c A2 e3 g|e/g/e d2 B2- Bc|
dGBd GAB[Gc]|d/e/d ce A2- AB|c/d/c A2 e/g/e d2|G4 G2- G[Be]|
dGBe GABG|d/e/d ce A2- AB|c/d/c A2 e3 g|e2 d2 B2- Bc|
dGBd GABG|d/e/d ce A2- A[Bd]|[c/e/][d/g/][ce] A2 e/g/e d2|G4- G2- G||
a|b/c'/b gb bagb|a2 ab agef|gfge d2 Bd|e/e/e a2 a2- aa|
bbgb bagb|aeab agef|g/a/g ge d/e/d Bd|g/g/g fa g2- ga|
b2- b2 bagb|a2- ab agef|g/f/g ge ddBd|de a2 [A/a/][B/b/][Aa] g[Aa|
b/c'/b gb bagb|a2 ab agef|gfge dGBd|g/g/g f2 g2- g||

